X:1
T:Oh! sweetest - Webbe
T:#
%%score 1 2
L:1/8
Q:1/4=80
M:4/4
K:G
V:1 treble nm="Soprano I" snm="S I"
V:2 treble nm="Soprano II" snm="S II"
V:1
"^O hope, thou soother sweet of human woes!""^moderato""^Samuel Webbe \n(1740-1816)""^Charlotte Turner Smith\n(1749-1806)" d2 | %1
w: Oh|
 (cB) z c (de) (fg) | (ag) (fe) d2 Tc2 | (cB) z2 z dcB |[M:4/4] cA c2 BBAG | A2 F2 G2 BG | %6
w: hope, * thou soo\- * ther *|sweet * of * hu- man|woes! * How shall I|lure thee, Oh hope, how shall I|lure thee, how shall I|
 g (f/e/) dc B2 TA2 | G4 z2 d2 | gfed cBcd | (BA) (cB) AGAF | G2 z d e>f ed | ^c3 c d2 d2 | %12
w: lure thee * to my haunts for-|lorn? For|me wilt thou re- new the wi- ther'd|rose, * re\- * new the wi- ther'd|rose, And clear my pain- ful|path of poin- ted|
 g3 f e>f ed | ^c2 d2 e2 c2 | d6 :|[M:3/4]"^affettuoso"[Q:1/4=100] d2 | B4 g2 | (g2 f2) e2 | %18
w: thorn, and clear my pain- ful|path of poin- ted|thorn?|Ah|come, sweet|nymph, * in|
 d4 c2 | B4 A2 | G6 | G3 A B2 | c6 |[M:3/4] B3 c d2 | (e2 f2) g2 | (f2 e2) d2 | (d2 c2) B2 | %27
w: smiles and|soft- ness|drest,|Like the young|hours,|like the young|hours * that|lead * the|ten\- * der|
 (B2 A2) A2 | B4 e2 | ^c4 c2 | ^c4 c2 | d4 =c2 | (B3 A) G2 | g4 ^c2 | !fermata!d4 | %35
w: year. * En-|chan- tress|come, en-|chan- tress|come, and|charm * my|cares to|rest.|
[M:4/4][Q:1/4=90] d2 | B2 z e c2 z d | %37
w: A-|las, a- las, a-|
[M:4/4][Q:1/4=90][Q:1/4=90][Q:1/4=90][Q:1/4=90] B (G/A/) (B/c/) (d/e/) =f3 f | e>^d ed e3 =d | %39
w: las, the * flat- * t'rer * flies, a-|las, the flat- t'rer flies, and|
 (cB) (AG) d3 d | eeea dd g2- | g2 f2 gG g2- | %42
w: will * not * hear, a-|las, the flat- t'rer flies, and will|* not hear, a- las,|
 g=fe^d[Q:1/4=45] !fermata!e3[Q:1/4=90] (=d/[Q:1/4=90]c/) | %43
w: * the flat- t'rer flies, and *|
[Q:1/4=90] B2[Q:1/4=90] TA2[Q:1/4=90] G2 :| %44
w: will not hear.|
V:2
 B2 | (AG) z A (Bc) (de) | (fe) (dc) B2 A2 | (AG) (G3/2A/4B/4) D4- |[M:4/4] D4 z dcB | %5
w: Oh|hope, * thou soo\- * ther *|sweet * of * hu- man|woes! * Oh * * hope,|* How shall I|
 c2 A2 B2 dB | e (d/c/) BA G2 TF2 | G4 z4 | z4 z2 d2 | gfed cBcd | B4 z2 z G | A>B AG F3 F | %12
w: lure thee, how shall I|lure thee * to my haunts for-|lorn?|For|me wilt thou re- new the wi- ther'd|rose, And|clear my pain- ful path of|
 E2 D2 G>A GF | E2 F2 G2 E2 | F6 :|[M:3/4] B2 | G4 e2 | (e2 d2) c2 | B4 A2 | (G2 D2) C2 | B,6 | %21
w: poin- ted thorn, my pain- ful|path of poin- ted|thorn?|Ah|come, sweet|nymph, * in|smiles and|soft\- * ness|drest,|
 B,3 D G2 | A6 |[M:3/4] G3 A B2 | (c2 d2) e2 | (d2 c2) B2 | (B2 A2) G2 | (G2 F2) z2 | z6 | %29
w: Like the young|hours,|like the young|hours * that|lead * the|ten\- * der|year. *||
 z2 z2 E2 | G4 A2 | F4 F2 | G4 G2 | E4 E2 | !fermata!D4 |[M:4/4] z2 | z G E2 z AGF | %37
w: En-|chan- tress|come, and|charm my|cares to|rest.||A- las, a- las, a-|
[M:4/4] G4 z dBG | c>B cB c3 B | (AG) (FE) FD d2- | dccc c2 B2 | (AB) (cd) B3 G | %42
w: las, a- las, a-|las, the flat- t'rer flies, and|will * not * hear, a- las,|* the flat- t'rer flies, and|will * not * hear, the|
 d2 B2 !fermata!c3 (B/A/) | G2 TF2 G2 :| %44
w: flat- t'rer flies, and *|will not hear.|

